X:2250
T:Hi son Hughee 
C:Traditional
O:Isle of Man
Z:Clague collection
B:Kiaull Vannin #250 
M:3/8
L:1/8 
Q:220 
K:G 
G2B|BBB|B2B|c2c|ccc|c2c|B2e|eee| 
e2e|G2B|BBB|G2E||G2B|BBB|B2B|c2c|
ccc|c2c|B2e|eee|e2e|GBB|B2B|G2E|| 

